X: 3
T: Fisher's
R: hornpipe
M: 4/4
L: 1/8
K: Gmaj
|:d2|gdBG cedc|BGBd cedc|Bbgb Acac|Bbgb Aafa|
gdBG cedc|BGBd cedc|Bdce dfac'|bagf g2:|
|:d2|afdf afc'a|bgdg bgd'b|afdf afc'b|agfe e2d2|
ecGc ecge|dBGB dBge|dafd dcBA|G2B2 G2:||


Tune 872	Setting 14043

